icons/matlab/matlab-line.svg

<?xml version="1.0" encoding="UTF-8" standalone="no"?>
<svg
   xmlns:dc="http://purl.org/dc/elements/1.1/"
   xmlns:cc="http://creativecommons.org/ns#"
   xmlns:rdf="http://www.w3.org/1999/02/22-rdf-syntax-ns#"
   xmlns:svg="http://www.w3.org/2000/svg"
   xmlns="http://www.w3.org/2000/svg"
   xmlns:sodipodi="http://sodipodi.sourceforge.net/DTD/sodipodi-0.dtd"
   xmlns:inkscape="http://www.inkscape.org/namespaces/inkscape"
   viewBox="0 0 128 128"
   version="1.1"
   id="svg8"
   sodipodi:docname="matlab-line.svg"
   inkscape:version="1.0.2-2 (e86c870879, 2021-01-15)">
  <metadata
     id="metadata14">
    <rdf:RDF>
      <cc:Work
         rdf:about="">
        <dc:format>image/svg+xml</dc:format>
        <dc:type
           rdf:resource="http://purl.org/dc/dcmitype/StillImage" />
      </cc:Work>
    </rdf:RDF>
  </metadata>
  <defs
     id="defs12" />
  <sodipodi:namedview
     pagecolor="#ffffff"
     bordercolor="#666666"
     borderopacity="1"
     objecttolerance="10"
     gridtolerance="10"
     guidetolerance="10"
     inkscape:pageopacity="0"
     inkscape:pageshadow="2"
     inkscape:window-width="1440"
     inkscape:window-height="748"
     id="namedview10"
     showgrid="false"
     inkscape:zoom="4.53125"
     inkscape:cx="64"
     inkscape:cy="64"
     inkscape:window-x="-6"
     inkscape:window-y="-6"
     inkscape:window-maximized="1"
     inkscape:current-layer="svg8" />
  <path
     fill="#6dd0c7"
     d="M85.7 10.1c.3.1 2.2.7 6 7.2 2.6 4.4 5.6 10.9 9 19.1 6.3 15.2 12.8 33.9 17.5 47.5 1.5 4.4 2.8 8.1 3.8 11-1.3-1.1-2.7-2.2-4.1-3.3-7.2-5.6-12.6-8.3-16.3-8.3h-.2c-7.1.2-12.5 6.4-20.1 14.9-2.4 2.7-5.1 5.8-8.2 9.1-8 8.4-13.2 10.7-15.6 11.4-3.6-11.6-7.6-20.2-12.1-25.5-2.6-3.1-5.2-5.2-8-6.2l5.9-4.1.1-.1.1-.1c7.4-6 15.3-17.6 23.4-34.3 6-12.4 9.9-23.1 9.9-23.2l.1-.2v-.2c3.1-14.4 8.6-14.7 8.8-14.7m0-2.2c-1.3 0-7.7.8-11.1 16.6 0 0-15.4 42.5-32.6 56.5l-12.5 8.7c.8-.5 2.3-1.1 4.2-1.1 5.3 0 14 5.1 22.2 32.6h.2c1.1 0 7.6-.6 18.7-12.3 12.3-13 18.6-23.1 26.7-23.3h.1c7.5 0 23.6 15.1 26.1 17.5C124 97 98 9.3 86 7.9h-.3zM29.6 89.7c-.5.3-.8.6-.8.6l.8-.6zm98.1 13.3c.1.2.2.3.3.3l-.3-.3z"
     id="path2" />
  <path
     style="color:#000000;font-style:normal;font-variant:normal;font-weight:normal;font-stretch:normal;font-size:medium;line-height:normal;font-family:sans-serif;font-variant-ligatures:normal;font-variant-position:normal;font-variant-caps:normal;font-variant-numeric:normal;font-variant-alternates:normal;font-variant-east-asian:normal;font-feature-settings:normal;font-variation-settings:normal;text-indent:0;text-align:start;text-decoration:none;text-decoration-line:none;text-decoration-style:solid;text-decoration-color:#000000;letter-spacing:normal;word-spacing:normal;text-transform:none;writing-mode:lr-tb;direction:ltr;text-orientation:mixed;dominant-baseline:auto;baseline-shift:baseline;text-anchor:start;white-space:normal;shape-padding:0;shape-margin:0;inline-size:0;clip-rule:nonzero;display:inline;overflow:visible;visibility:visible;isolation:auto;mix-blend-mode:normal;color-interpolation:sRGB;color-interpolation-filters:linearRGB;solid-color:#000000;solid-opacity:1;vector-effect:none;fill:#6dd0c7;fill-opacity:1;fill-rule:nonzero;stroke:none;stroke-linecap:square;stroke-linejoin:miter;stroke-miterlimit:10;stroke-dasharray:none;stroke-dashoffset:0;stroke-opacity:1;color-rendering:auto;image-rendering:auto;shape-rendering:auto;text-rendering:auto;enable-background:accumulate;stop-color:#000000;stop-opacity:1;opacity:1"
     d="M 38.730469 52.746094 L 1.0683594 69.671875 L 28.541016 90.886719 L 28.859375 90.898438 C 29.583287 90.927394 30.129045 90.684234 30.955078 90.332031 C 31.781112 89.979829 32.783894 89.473036 33.923828 88.830078 C 36.203696 87.544162 39.025743 85.710689 41.919922 83.494141 C 47.708279 79.061044 53.80224 73.148104 56.232422 66.861328 L 56.505859 66.15625 L 55.902344 65.701172 L 38.730469 52.746094 z M 38.470703 55.054688 L 54.019531 66.787109 C 51.666322 72.198806 46.125275 77.755115 40.705078 81.90625 C 37.886757 84.064702 35.127163 85.855056 32.941406 87.087891 C 31.848528 87.704308 30.897795 88.182671 30.171875 88.492188 C 29.57028 88.748694 29.253896 88.797748 29.150391 88.830078 L 4.9316406 70.128906 L 38.470703 55.054688 z "
     id="path4" />
  <path
     style="color:#000000;font-style:normal;font-variant:normal;font-weight:normal;font-stretch:normal;font-size:medium;line-height:normal;font-family:sans-serif;font-variant-ligatures:normal;font-variant-position:normal;font-variant-caps:normal;font-variant-numeric:normal;font-variant-alternates:normal;font-variant-east-asian:normal;font-feature-settings:normal;font-variation-settings:normal;text-indent:0;text-align:start;text-decoration:none;text-decoration-line:none;text-decoration-style:solid;text-decoration-color:#000000;letter-spacing:normal;word-spacing:normal;text-transform:none;writing-mode:lr-tb;direction:ltr;text-orientation:mixed;dominant-baseline:auto;baseline-shift:baseline;text-anchor:start;white-space:normal;shape-padding:0;shape-margin:0;inline-size:0;clip-rule:nonzero;display:inline;overflow:visible;visibility:visible;isolation:auto;mix-blend-mode:normal;color-interpolation:sRGB;color-interpolation-filters:linearRGB;solid-color:#000000;solid-opacity:1;vector-effect:none;fill:#6dd0c7;fill-opacity:1;fill-rule:nonzero;stroke:none;stroke-linecap:round;stroke-linejoin:round;stroke-miterlimit:10;stroke-dasharray:none;stroke-dashoffset:0;stroke-opacity:1;color-rendering:auto;image-rendering:auto;shape-rendering:auto;text-rendering:auto;enable-background:accumulate;stop-color:#000000;stop-opacity:1;opacity:1"
     d="M 79.007812 14 A 1 1 0 0 0 78.128906 14.509766 C 71.514857 26.245973 66.498401 32.112015 62.574219 35.160156 C 58.650037 38.208298 55.856082 38.507025 53.083984 39.123047 L 53.099609 39.121094 C 51.434653 39.460252 49.787488 40.55796 48.115234 41.953125 C 46.442981 43.34829 44.772967 45.06864 43.277344 46.748047 C 40.286098 50.106861 37.986328 53.318359 37.986328 53.318359 A 1 1 0 0 0 38.216797 54.712891 A 1 1 0 0 0 39.613281 54.482422 C 39.613281 54.482422 41.86273 51.344311 44.771484 48.078125 C 46.225862 46.445032 47.843738 44.783741 49.396484 43.488281 C 50.949231 42.192821 52.464956 41.29092 53.5 41.080078 A 1.0001 1.0001 0 0 0 53.517578 41.076172 C 56.145481 40.492194 59.549963 40.042093 63.800781 36.740234 C 68.051599 33.438376 73.185143 27.354027 79.871094 15.490234 A 1 1 0 0 0 79.490234 14.128906 A 1 1 0 0 0 79.007812 14 z "
     id="path6" />
</svg>

<svg xmlns="http://www.w3.org/2000/svg" viewBox="0 0 128 128"><path fill="#6dd0c7" d="M85.7 10.1c.3.1 2.2.7 6 7.2 2.6 4.4 5.6 10.9 9 19.1 6.3 15.2 12.8 33.9 17.5 47.5 1.5 4.4 2.8 8.1 3.8 11-1.3-1.1-2.7-2.2-4.1-3.3-7.2-5.6-12.6-8.3-16.3-8.3h-.2c-7.1.2-12.5 6.4-20.1 14.9-2.4 2.7-5.1 5.8-8.2 9.1-8 8.4-13.2 10.7-15.6 11.4-3.6-11.6-7.6-20.2-12.1-25.5-2.6-3.1-5.2-5.2-8-6.2l5.9-4.1.1-.1.1-.1c7.4-6 15.3-17.6 23.4-34.3 6-12.4 9.9-23.1 9.9-23.2l.1-.2v-.2c3.1-14.4 8.6-14.7 8.8-14.7m0-2.2c-1.3 0-7.7.8-11.1 16.6 0 0-15.4 42.5-32.6 56.5l-12.5 8.7c.8-.5 2.3-1.1 4.2-1.1 5.3 0 14 5.1 22.2 32.6h.2c1.1 0 7.6-.6 18.7-12.3 12.3-13 18.6-23.1 26.7-23.3h.1c7.5 0 23.6 15.1 26.1 17.5C124 97 98 9.3 86 7.9h-.3zM29.6 89.7c-.5.3-.8.6-.8.6l.8-.6zm98.1 13.3c.1.2.2.3.3.3l-.3-.3z"/><path style="line-height:normal;font-variant-ligatures:normal;font-variant-position:normal;font-variant-caps:normal;font-variant-numeric:normal;font-variant-alternates:normal;font-variant-east-asian:normal;font-feature-settings:normal;font-variation-settings:normal;text-indent:0;text-align:start;text-decoration-line:none;text-decoration-style:solid;text-decoration-color:#000;text-transform:none;text-orientation:mixed;white-space:normal;shape-padding:0;shape-margin:0;inline-size:0;isolation:auto;mix-blend-mode:normal;solid-color:#000;solid-opacity:1" d="M38.73 52.746L1.068 69.672l27.473 21.215.318.011c.724.03 1.27-.214 2.096-.566.826-.352 1.829-.859 2.969-1.502 2.28-1.286 5.102-3.12 7.996-5.336 5.788-4.433 11.882-10.346 14.312-16.633l.274-.705-.604-.455L38.73 52.746zm-.26 2.309l15.55 11.732c-2.354 5.412-7.895 10.968-13.315 15.12-2.818 2.158-5.578 3.948-7.764 5.18-1.092.617-2.043 1.096-2.77 1.405-.6.257-.917.306-1.02.338L4.93 70.13l33.54-15.074z" color="#000" font-weight="400" font-family="sans-serif" overflow="visible" fill="#6dd0c7"/><path style="line-height:normal;font-variant-ligatures:normal;font-variant-position:normal;font-variant-caps:normal;font-variant-numeric:normal;font-variant-alternates:normal;font-variant-east-asian:normal;font-feature-settings:normal;font-variation-settings:normal;text-indent:0;text-align:start;text-decoration-line:none;text-decoration-style:solid;text-decoration-color:#000;text-transform:none;text-orientation:mixed;white-space:normal;shape-padding:0;shape-margin:0;inline-size:0;isolation:auto;mix-blend-mode:normal;solid-color:#000;solid-opacity:1" d="M79.008 14a1 1 0 00-.88.51c-6.613 11.736-11.63 17.602-15.554 20.65-3.924 3.048-6.718 3.347-9.49 3.963l.016-.002c-1.665.34-3.313 1.437-4.985 2.832-1.672 1.395-3.342 3.116-4.838 4.795a89.432 89.432 0 00-5.29 6.57 1 1 0 00.23 1.395 1 1 0 001.396-.23s2.25-3.139 5.158-6.405c1.455-1.633 3.073-3.294 4.625-4.59 1.553-1.295 3.069-2.197 4.104-2.408a1 1 0 00.018-.004c2.627-.584 6.032-1.034 10.283-4.336 4.25-3.302 9.384-9.386 16.07-21.25a1 1 0 00-.38-1.361 1 1 0 00-.483-.129z" color="#000" font-weight="400" font-family="sans-serif" overflow="visible" fill="#6dd0c7"/></svg>
